!!!!SEGMENT: pl-sa--l-1636--088_anonim--keyboard-piece.krn
!!!cenid: 17xx:795
!!!COM: Anonim
!!!COM-rismID:
!!!CDT:
!!!CNT:
!!!OTL: [Keyboard piece]
!!!PDT:
!!!AGN: Secular
!!!SMS-siglum: PL-SA
!!!SMS-shelfmark: L 1636
!!!SMS-shelfwork: 088 W
!!!SMS-variant:
!!!SMS-altvar:
!!!NIFC-rismSourceID: 1001077038
!!!NIFC-islandoraID:
!!!URL-pdf-islandora:
!!!URL-scan:
!!!ONB-nifc: 33r, skan 0036, s. 1-4
!!!AIN: 1 organ
!!!key:
**kern	**kern
*part1	*part1
*staff2	*staff1
*Iorgan	*Iempty
*I"Organo	*
*I'org	*
*group1	*group1
*clefC4	*clefC1
*k[]	*k[]
*C:	*C:
*M2/2	*M2/2
*met(c|)	*met(c|)
=1	=1
*^	*^
*2\right	*2\right	*2\right	*2\right
4G/	2C\	4g/	2e\
4c/	.	[4a/	.
4A/	2D\	4a/]	2f\
4d/	.	[4b/	.
=2	=2	=2	=2
4B/	2E\	4b/]	2g\
4e/	.	[4cc/	.
4c/	2F\	4cc/]	2a\
4f/	.	[4dd/	.
=3	=3	=3	=3
4d/	2G\	4dd/]	2b\
4g/	.	[4ee/	.
4e/	2A\	4ee/]	2cc\
4a/	.	4ff/	.
=4	=4	=4	=4
!	!	!	!LO:TX:a:t=P:problem=4\right&colon; global
2g/	2e\	2ee/	4b\
.	.	.	[4cc\
4a/	2d\	2ff/	4cc\]
4f/	.	.	[4b\
=5	=5	=5	=5
4g/	2c\	2ee/	4b\]
4e/	.	.	[4a\
4f/	2B\	2dd/	4a\]
4d/	.	.	[4g\
=6	=6	=6	=6
4e/	2A\	2cc/	4g\]
4c/	.	.	[4f\
4d/	2ryy	2b/	4f\]
4ryy	.	.	[4e\
!!LO:LB:g=original
=7	=7	=7	=7
4c/	2F\	2a/	4e\]
4A/	.	.	[4d\
4B/	2E\	2g/	4d\]
4G/	.	.	[4c\
=8	=8	=8	=8
4A/	2D\	2f/	4c\]
4F/	.	.	4B\
2C/ 2E 2G	2rDyy	2G/ 2c 2e	2rFyy
*	*	*v	*v
=9||	=9||	=9||
4G/	2C\	16g/LL
.	.	16e/
.	.	16f/
.	.	16g/JJ
!	!	!LO:TX:a:t=P:problem=16\right&colon; global
4c/	.	16a\LL
.	.	16b\
.	.	16g\
.	.	16a\JJ
4A/	2D\	16a\LL
.	.	16f\
.	.	16g\
.	.	16a\JJ
4d/	.	16b\LL
.	.	16cc\
.	.	16a\
.	.	16b\JJ
=10	=10	=10
4B/	2E\	16b\LL
.	.	16g\
.	.	16a\
.	.	16b\JJ
4e/	.	16cc\LL
.	.	16dd\
.	.	16b\
.	.	16cc\JJ
4c/	2F\	16cc\LL
.	.	16a\
.	.	16b\
.	.	16cc\JJ
4f/	.	16dd\LL
.	.	16ee\
.	.	16cc\
.	.	16dd\JJ
!!LO:LB:g=original
=11	=11	=11
4d/	2G\	16dd\LL
.	.	16b\
.	.	16cc\
.	.	16dd\JJ
4g/	.	16ee\LL
.	.	16ff\
.	.	16dd\
.	.	16ee\JJ
4e/	2A\	16ee\LL
.	.	16cc\
.	.	16dd\
.	.	16ee\JJ
4a/	.	16ff\LL
.	.	16gg\
.	.	16ee\
.	.	16ff\JJ
=12	=12	=12
*	*	*^
2g/	2e\	2ee/	4b\
.	.	.	4cc\
4a/	2d\	16ff\LL	2reyy
.	.	16gg\	.
.	.	16ee\	.
.	.	16ff\JJ	.
4f/	.	16dd\LL	.
.	.	16ff\	.
.	.	16ee\	.
.	.	16dd\JJ	.
*	*	*v	*v
=13	=13	=13
4g/	2c\	16ee\LL
.	.	16ff\
.	.	16dd\
.	.	16ee\JJ
4e/	.	16cc\LL
.	.	16ee\
.	.	16dd\
.	.	16cc\JJ
4f/	2B\	16dd\LL
.	.	16ee\
.	.	16cc\
.	.	16dd\JJ
4d/	.	16b\LL
.	.	16dd\
.	.	16cc\
.	.	16b\JJ
!!LO:LB:g=original
=14	=14	=14
4e/	2A\	16cc\LL
.	.	16dd\
.	.	16b\
.	.	16cc\JJ
4c/	.	16a\LL
.	.	16cc\
.	.	16b\
.	.	16a\JJ
4d/	2G\	16b\LL
.	.	16cc\
.	.	16a\
.	.	16b\JJ
4B/	.	16g\LL
.	.	16b\
.	.	16a\
.	.	16g\JJ
=15	=15	=15
4c/	2F\	16a\LL
.	.	16b\
.	.	16g\
.	.	16a\JJ
4A/	.	16f\LL
.	.	16a\
.	.	16g\
.	.	16f\JJ
4B/	2E\	16g\LL
.	.	16a\
.	.	16f\
.	.	16g\JJ
4G/	.	16e\LL
.	.	16g\
.	.	16f\
.	.	16e\JJ
=16	=16	=16
4A/	2D\	16f/LL
.	.	16g/
.	.	16e/
.	.	16f/JJ
4F/	.	16d/LL
.	.	16f/
.	.	16e/
.	.	16d/JJ
4G/	2C\	16e/LL
.	.	16f/
.	.	16d/
.	.	16e/JJ
4E/	.	16c/LL
.	.	16e/
.	.	16d/
.	.	16c/JJ
*v	*v	*
=17	=17
*	*^
!	!LO:N:vis=2	!
16c\LL	4.d/	4c\
16A\	.	.
16B\	.	.
16c\JJ	.	.
16d\LL	.	4B\
16c\	.	.
16d\	8f/	.
16B\JJ	.	.
2GG/ 2G	2c/ 2e	2rcyy
*	*v	*v
==	==
*-	*-
!!!system-decoration: [(g1)]
!!!ENC: Anna Matuszewska
!!!END: 2020-12-15
!!!ENC: Marcin Jachim
!!!END: 2020-06-12
